report_00007_2020-12-11T15:55:29.892Z/interactive/comparison/histogram/3_vs_4.svg

<svg width="640" height="500" xmlns="http://www.w3.org/2000/svg" xmlns:xlink="http://www.w3.org/1999/xlink"><path fill="#fff" d="M0 0h640v500H0z"/><defs><path id="d" stroke-width=".222" stroke="currentColor" d="M-1-1h2v2h-2z"/><path id="b" stroke-width=".222" stroke="currentColor" d="M0-1.33l-1.33 2h2.66z"/><path id="f" stroke-width=".222" stroke="currentColor" d="M0 1.33L1.265.411.782-1.067l-1.564-.009-.483 1.487z"/><use xlink:href="#b" id="c" stroke="currentColor" transform="rotate(180)"/><use xlink:href="#d" id="e" stroke="currentColor" transform="rotate(45)"/><circle id="a" stroke-width=".222" stroke="currentColor" cx="0" cy="0" r="1"/></defs><g fill="none" color="#000" stroke="currentColor"><path stroke="#000" d="M53.9 428h9m552.1 0h-9"/><text transform="translate(45.6 431.9)" stroke="none" fill="#000" font-family="Arial" font-size="12" text-anchor="end"><tspan>0</tspan></text></g><g fill="none" color="#000" stroke="currentColor"><path stroke="#000" d="M53.9 346h9m552.1 0h-9"/><text transform="translate(45.6 349.9)" stroke="none" fill="#000" font-family="Arial" font-size="12" text-anchor="end"><tspan>20</tspan></text></g><g fill="none" color="#000" stroke="currentColor"><path stroke="#000" d="M53.9 264h9m552.1 0h-9"/><text transform="translate(45.6 267.9)" stroke="none" fill="#000" font-family="Arial" font-size="12" text-anchor="end"><tspan>40</tspan></text></g><g fill="none" color="#000" stroke="currentColor"><path stroke="#000" d="M53.9 182.1h9m552.1 0h-9"/><text transform="translate(45.6 186)" stroke="none" fill="#000" font-family="Arial" font-size="12" text-anchor="end"><tspan>60</tspan></text></g><g fill="none" color="#000" stroke="currentColor"><path stroke="#000" d="M53.9 100.1h9m552.1 0h-9"/><text transform="translate(45.6 104)" stroke="none" fill="#000" font-family="Arial" font-size="12" text-anchor="end"><tspan>80</tspan></text></g><g fill="none" color="#000" stroke="currentColor"><path stroke="#000" d="M53.9 18.1h9m552.1 0h-9"/><text transform="translate(45.6 22)" stroke="none" fill="#000" font-family="Arial" font-size="12" text-anchor="end"><tspan>100</tspan></text></g><g fill="none" color="#000" stroke="currentColor"><path stroke="#000" d="M65.1 428v-9m0-400.9v9"/><text transform="translate(65.1 449.9)" stroke="none" fill="#000" font-family="Arial" font-size="12" text-anchor="middle"><tspan>2000</tspan></text></g><g fill="none" color="#000" stroke="currentColor"><path stroke="#000" d="M126.2 428v-9m0-400.9v9"/><text transform="translate(126.2 449.9)" stroke="none" fill="#000" font-family="Arial" font-size="12" text-anchor="middle"><tspan>3000</tspan></text></g><g fill="none" color="#000" stroke="currentColor"><path stroke="#000" d="M187.2 428v-9m0-400.9v9"/><text transform="translate(187.2 449.9)" stroke="none" fill="#000" font-family="Arial" font-size="12" text-anchor="middle"><tspan>4000</tspan></text></g><g fill="none" color="#000" stroke="currentColor"><path stroke="#000" d="M248.3 428v-9m0-400.9v9"/><text transform="translate(248.3 449.9)" stroke="none" fill="#000" font-family="Arial" font-size="12" text-anchor="middle"><tspan>5000</tspan></text></g><g fill="none" color="#000" stroke="currentColor"><path stroke="#000" d="M309.3 428v-9m0-400.9v9"/><text transform="translate(309.3 449.9)" stroke="none" fill="#000" font-family="Arial" font-size="12" text-anchor="middle"><tspan>6000</tspan></text></g><g fill="none" color="#000" stroke="currentColor"><path stroke="#000" d="M370.4 428v-9m0-400.9v9"/><text transform="translate(370.4 449.9)" stroke="none" fill="#000" font-family="Arial" font-size="12" text-anchor="middle"><tspan>7000</tspan></text></g><g fill="none" color="#000" stroke="currentColor"><path stroke="#000" d="M431.4 428v-9m0-400.9v9"/><text transform="translate(431.4 449.9)" stroke="none" fill="#000" font-family="Arial" font-size="12" text-anchor="middle"><tspan>8000</tspan></text></g><g fill="none" color="#000" stroke="currentColor"><path stroke="#000" d="M492.5 428v-9m0-400.9v9"/><text transform="translate(492.5 449.9)" stroke="none" fill="#000" font-family="Arial" font-size="12" text-anchor="middle"><tspan>9000</tspan></text></g><g fill="none" color="#000" stroke="currentColor"><path stroke="#000" d="M553.5 428v-9m0-400.9v9"/><text transform="translate(553.5 449.9)" stroke="none" fill="#000" font-family="Arial" font-size="12" text-anchor="middle"><tspan>10000</tspan></text></g><g fill="none" color="#000" stroke="currentColor"><path stroke="#000" d="M614.5 428v-9m0-400.9v9"/><text transform="translate(614.5 449.9)" stroke="none" fill="#000" font-family="Arial" font-size="12" text-anchor="middle"><tspan>11000</tspan></text></g><path stroke="#000" d="M53.9 18.1V428H615V18.1H53.9z" fill="none" color="#000"/><text transform="translate(275.6 467.9)" stroke="none" fill="#000" font-family="Arial" font-size="12" text-anchor="end" color="#000"><tspan>pages+cached+nointeractive</tspan></text><g stroke="none" shape-rendering="geometricPrecision" fill="#9400D3" fill-opacity=".5" color="#000"><path d="M283.9 468.5h42.2v-9h-42.2zM261.9 428h353.2V18H261.9z"/></g><text transform="translate(275.6 485.9)" stroke="none" fill="#000" font-family="Arial" font-size="12" text-anchor="end" color="#000"><tspan>pages+cached+noadtech</tspan></text><g stroke="none" shape-rendering="crispEdges" fill="#009E73" fill-opacity=".5" color="#000"><path d="M283.9 486.5h42.2v-9h-42.2zM53.9 428H262V18H53.9z"/></g><text transform="translate(550.2 467.9)" stroke="none" fill="#000" font-family="Arial" font-size="12" text-anchor="end" color="#000"><tspan>score p10=3785</tspan></text><path stroke="#56B4E9" d="M558.5 464h42.2m-426.6-36V407.5" fill="none" color="#000"/><g><text transform="translate(550.2 485.9)" stroke="none" fill="#000" font-family="Arial" font-size="12" text-anchor="end" color="#000"><tspan>score median=7300</tspan></text><path stroke="#E69F00" d="M558.5 482h42.2m-212-54V407.5" fill="none" color="#000"/></g><g fill="none" color="#000" stroke="currentColor"><path stroke="#000" d="M53.9 18.1V428H615V18.1H53.9z"/></g></svg>

<?xml version="1.0" encoding="utf-8"  standalone="no"?>
<svg 
 width="640" height="500"
 viewBox="0 0 640 500"
 xmlns="http://www.w3.org/2000/svg"
 xmlns:xlink="http://www.w3.org/1999/xlink"
>

<title>Gnuplot</title>
<desc>Produced by GNUPLOT 5.4 patchlevel 0 </desc>

<g id="gnuplot_canvas">

<rect x="0" y="0" width="640" height="500" fill="#ffffff"/>
<defs>

	<circle id='gpDot' r='0.5' stroke-width='0.5' stroke='currentColor'/>
	<path id='gpPt0' stroke-width='0.222' stroke='currentColor' d='M-1,0 h2 M0,-1 v2'/>
	<path id='gpPt1' stroke-width='0.222' stroke='currentColor' d='M-1,-1 L1,1 M1,-1 L-1,1'/>
	<path id='gpPt2' stroke-width='0.222' stroke='currentColor' d='M-1,0 L1,0 M0,-1 L0,1 M-1,-1 L1,1 M-1,1 L1,-1'/>
	<rect id='gpPt3' stroke-width='0.222' stroke='currentColor' x='-1' y='-1' width='2' height='2'/>
	<rect id='gpPt4' stroke-width='0.222' stroke='currentColor' fill='currentColor' x='-1' y='-1' width='2' height='2'/>
	<circle id='gpPt5' stroke-width='0.222' stroke='currentColor' cx='0' cy='0' r='1'/>
	<use xlink:href='#gpPt5' id='gpPt6' fill='currentColor' stroke='none'/>
	<path id='gpPt7' stroke-width='0.222' stroke='currentColor' d='M0,-1.33 L-1.33,0.67 L1.33,0.67 z'/>
	<use xlink:href='#gpPt7' id='gpPt8' fill='currentColor' stroke='none'/>
	<use xlink:href='#gpPt7' id='gpPt9' stroke='currentColor' transform='rotate(180)'/>
	<use xlink:href='#gpPt9' id='gpPt10' fill='currentColor' stroke='none'/>
	<use xlink:href='#gpPt3' id='gpPt11' stroke='currentColor' transform='rotate(45)'/>
	<use xlink:href='#gpPt11' id='gpPt12' fill='currentColor' stroke='none'/>
	<path id='gpPt13' stroke-width='0.222' stroke='currentColor' d='M0,1.330 L1.265,0.411 L0.782,-1.067 L-0.782,-1.076 L-1.265,0.411 z'/>
	<use xlink:href='#gpPt13' id='gpPt14' fill='currentColor' stroke='none'/>
	<filter id='textbox' filterUnits='objectBoundingBox' x='0' y='0' height='1' width='1'>
	  <feFlood flood-color='#FFFFFF' flood-opacity='1' result='bgnd'/>
	  <feComposite in='SourceGraphic' in2='bgnd' operator='atop'/>
	</filter>
	<filter id='greybox' filterUnits='objectBoundingBox' x='0' y='0' height='1' width='1'>
	  <feFlood flood-color='lightgrey' flood-opacity='1' result='grey'/>
	  <feComposite in='SourceGraphic' in2='grey' operator='atop'/>
	</filter>
</defs>
<g fill="none" color="#FFFFFF" stroke="black" stroke-width="1.00" stroke-linecap="butt" stroke-linejoin="miter">
</g>
<g fill="none" color="black" stroke="currentColor" stroke-width="1.00" stroke-linecap="butt" stroke-linejoin="miter">
	<path stroke='black'  d='M53.9,428.0 L62.9,428.0 M615.0,428.0 L606.0,428.0  '/>	<g transform="translate(45.6,431.9)" stroke="none" fill="black" font-family="Arial" font-size="12.00"  text-anchor="end">
		<text><tspan font-family="Arial" > 0</tspan></text>
	</g>
</g>
<g fill="none" color="black" stroke="currentColor" stroke-width="1.00" stroke-linecap="butt" stroke-linejoin="miter">
	<path stroke='black'  d='M53.9,346.0 L62.9,346.0 M615.0,346.0 L606.0,346.0  '/>	<g transform="translate(45.6,349.9)" stroke="none" fill="black" font-family="Arial" font-size="12.00"  text-anchor="end">
		<text><tspan font-family="Arial" > 20</tspan></text>
	</g>
</g>
<g fill="none" color="black" stroke="currentColor" stroke-width="1.00" stroke-linecap="butt" stroke-linejoin="miter">
	<path stroke='black'  d='M53.9,264.0 L62.9,264.0 M615.0,264.0 L606.0,264.0  '/>	<g transform="translate(45.6,267.9)" stroke="none" fill="black" font-family="Arial" font-size="12.00"  text-anchor="end">
		<text><tspan font-family="Arial" > 40</tspan></text>
	</g>
</g>
<g fill="none" color="black" stroke="currentColor" stroke-width="1.00" stroke-linecap="butt" stroke-linejoin="miter">
	<path stroke='black'  d='M53.9,182.1 L62.9,182.1 M615.0,182.1 L606.0,182.1  '/>	<g transform="translate(45.6,186.0)" stroke="none" fill="black" font-family="Arial" font-size="12.00"  text-anchor="end">
		<text><tspan font-family="Arial" > 60</tspan></text>
	</g>
</g>
<g fill="none" color="black" stroke="currentColor" stroke-width="1.00" stroke-linecap="butt" stroke-linejoin="miter">
	<path stroke='black'  d='M53.9,100.1 L62.9,100.1 M615.0,100.1 L606.0,100.1  '/>	<g transform="translate(45.6,104.0)" stroke="none" fill="black" font-family="Arial" font-size="12.00"  text-anchor="end">
		<text><tspan font-family="Arial" > 80</tspan></text>
	</g>
</g>
<g fill="none" color="black" stroke="currentColor" stroke-width="1.00" stroke-linecap="butt" stroke-linejoin="miter">
	<path stroke='black'  d='M53.9,18.1 L62.9,18.1 M615.0,18.1 L606.0,18.1  '/>	<g transform="translate(45.6,22.0)" stroke="none" fill="black" font-family="Arial" font-size="12.00"  text-anchor="end">
		<text><tspan font-family="Arial" > 100</tspan></text>
	</g>
</g>
<g fill="none" color="black" stroke="currentColor" stroke-width="1.00" stroke-linecap="butt" stroke-linejoin="miter">
	<path stroke='black'  d='M65.1,428.0 L65.1,419.0 M65.1,18.1 L65.1,27.1  '/>	<g transform="translate(65.1,449.9)" stroke="none" fill="black" font-family="Arial" font-size="12.00"  text-anchor="middle">
		<text><tspan font-family="Arial" > 2000</tspan></text>
	</g>
</g>
<g fill="none" color="black" stroke="currentColor" stroke-width="1.00" stroke-linecap="butt" stroke-linejoin="miter">
	<path stroke='black'  d='M126.2,428.0 L126.2,419.0 M126.2,18.1 L126.2,27.1  '/>	<g transform="translate(126.2,449.9)" stroke="none" fill="black" font-family="Arial" font-size="12.00"  text-anchor="middle">
		<text><tspan font-family="Arial" > 3000</tspan></text>
	</g>
</g>
<g fill="none" color="black" stroke="currentColor" stroke-width="1.00" stroke-linecap="butt" stroke-linejoin="miter">
	<path stroke='black'  d='M187.2,428.0 L187.2,419.0 M187.2,18.1 L187.2,27.1  '/>	<g transform="translate(187.2,449.9)" stroke="none" fill="black" font-family="Arial" font-size="12.00"  text-anchor="middle">
		<text><tspan font-family="Arial" > 4000</tspan></text>
	</g>
</g>
<g fill="none" color="black" stroke="currentColor" stroke-width="1.00" stroke-linecap="butt" stroke-linejoin="miter">
	<path stroke='black'  d='M248.3,428.0 L248.3,419.0 M248.3,18.1 L248.3,27.1  '/>	<g transform="translate(248.3,449.9)" stroke="none" fill="black" font-family="Arial" font-size="12.00"  text-anchor="middle">
		<text><tspan font-family="Arial" > 5000</tspan></text>
	</g>
</g>
<g fill="none" color="black" stroke="currentColor" stroke-width="1.00" stroke-linecap="butt" stroke-linejoin="miter">
	<path stroke='black'  d='M309.3,428.0 L309.3,419.0 M309.3,18.1 L309.3,27.1  '/>	<g transform="translate(309.3,449.9)" stroke="none" fill="black" font-family="Arial" font-size="12.00"  text-anchor="middle">
		<text><tspan font-family="Arial" > 6000</tspan></text>
	</g>
</g>
<g fill="none" color="black" stroke="currentColor" stroke-width="1.00" stroke-linecap="butt" stroke-linejoin="miter">
	<path stroke='black'  d='M370.4,428.0 L370.4,419.0 M370.4,18.1 L370.4,27.1  '/>	<g transform="translate(370.4,449.9)" stroke="none" fill="black" font-family="Arial" font-size="12.00"  text-anchor="middle">
		<text><tspan font-family="Arial" > 7000</tspan></text>
	</g>
</g>
<g fill="none" color="black" stroke="currentColor" stroke-width="1.00" stroke-linecap="butt" stroke-linejoin="miter">
	<path stroke='black'  d='M431.4,428.0 L431.4,419.0 M431.4,18.1 L431.4,27.1  '/>	<g transform="translate(431.4,449.9)" stroke="none" fill="black" font-family="Arial" font-size="12.00"  text-anchor="middle">
		<text><tspan font-family="Arial" > 8000</tspan></text>
	</g>
</g>
<g fill="none" color="black" stroke="currentColor" stroke-width="1.00" stroke-linecap="butt" stroke-linejoin="miter">
	<path stroke='black'  d='M492.5,428.0 L492.5,419.0 M492.5,18.1 L492.5,27.1  '/>	<g transform="translate(492.5,449.9)" stroke="none" fill="black" font-family="Arial" font-size="12.00"  text-anchor="middle">
		<text><tspan font-family="Arial" > 9000</tspan></text>
	</g>
</g>
<g fill="none" color="black" stroke="currentColor" stroke-width="1.00" stroke-linecap="butt" stroke-linejoin="miter">
	<path stroke='black'  d='M553.5,428.0 L553.5,419.0 M553.5,18.1 L553.5,27.1  '/>	<g transform="translate(553.5,449.9)" stroke="none" fill="black" font-family="Arial" font-size="12.00"  text-anchor="middle">
		<text><tspan font-family="Arial" > 10000</tspan></text>
	</g>
</g>
<g fill="none" color="black" stroke="currentColor" stroke-width="1.00" stroke-linecap="butt" stroke-linejoin="miter">
	<path stroke='black'  d='M614.5,428.0 L614.5,419.0 M614.5,18.1 L614.5,27.1  '/>	<g transform="translate(614.5,449.9)" stroke="none" fill="black" font-family="Arial" font-size="12.00"  text-anchor="middle">
		<text><tspan font-family="Arial" > 11000</tspan></text>
	</g>
</g>
<g fill="none" color="black" stroke="currentColor" stroke-width="1.00" stroke-linecap="butt" stroke-linejoin="miter">
</g>
<g fill="none" color="black" stroke="currentColor" stroke-width="1.00" stroke-linecap="butt" stroke-linejoin="miter">
	<path stroke='black'  d='M53.9,18.1 L53.9,428.0 L615.0,428.0 L615.0,18.1 L53.9,18.1 Z  '/></g>
<g fill="none" color="black" stroke="currentColor" stroke-width="1.00" stroke-linecap="butt" stroke-linejoin="miter">
</g>
	<g id="gnuplot_plot_1" ><title>pages+cached+nointeractive</title>
<g fill="none" color="black" stroke="currentColor" stroke-width="1.00" stroke-linecap="butt" stroke-linejoin="miter">
	<g transform="translate(275.6,467.9)" stroke="none" fill="black" font-family="Arial" font-size="12.00"  text-anchor="end">
		<text><tspan font-family="Arial" >pages+cached+nointeractive</tspan></text>
	</g>
</g>
<g fill="none" color="black" stroke="currentColor" stroke-width="1.00" stroke-linecap="butt" stroke-linejoin="miter">
	<g stroke='none' shape-rendering='geometricPrecision'>
		<polygon fill = 'rgb(148,   0, 211)' fill-opacity = '0.500000' points = '283.9,468.5 326.1,468.5 326.1,459.5 283.9,459.5 '/>
		<polygon fill = 'rgb(148,   0, 211)' fill-opacity = '0.500000' points = '261.9,428.0 615.1,428.0 615.1,18.0 261.9,18.0 '/>
	</g>
</g>
	</g>
	<g id="gnuplot_plot_2" ><title>pages+cached+noadtech</title>
<g fill="none" color="black" stroke="currentColor" stroke-width="1.00" stroke-linecap="butt" stroke-linejoin="miter">
	<g transform="translate(275.6,485.9)" stroke="none" fill="black" font-family="Arial" font-size="12.00"  text-anchor="end">
		<text><tspan font-family="Arial" >pages+cached+noadtech</tspan></text>
	</g>
</g>
<g fill="none" color="black" stroke="currentColor" stroke-width="1.00" stroke-linecap="butt" stroke-linejoin="miter">
	<g stroke='none' shape-rendering='crispEdges'>
		<polygon fill = 'rgb(  0, 158, 115)' fill-opacity = '0.500000' points = '283.9,486.5 326.1,486.5 326.1,477.5 283.9,477.5 '/>
		<polygon fill = 'rgb(  0, 158, 115)' fill-opacity = '0.500000' points = '53.9,428.0 262.0,428.0 262.0,18.0 53.9,18.0 '/>
	</g>
</g>
	</g>
	<g id="gnuplot_plot_3" ><title>score p10=3785</title>
<g fill="none" color="black" stroke="currentColor" stroke-width="1.00" stroke-linecap="butt" stroke-linejoin="miter">
	<g transform="translate(550.2,467.9)" stroke="none" fill="black" font-family="Arial" font-size="12.00"  text-anchor="end">
		<text><tspan font-family="Arial" >score p10=3785</tspan></text>
	</g>
</g>
<g fill="none" color="black" stroke="currentColor" stroke-width="1.00" stroke-linecap="butt" stroke-linejoin="miter">
	<path stroke='rgb( 86, 180, 233)'  d='M558.5,464.0 L600.7,464.0 M174.1,428.0 L174.1,427.8 L174.1,427.4 L174.1,427.0 L174.1,426.6 L174.1,426.1
		L174.1,425.7 L174.1,425.3 L174.1,424.9 L174.1,424.5 L174.1,424.1 L174.1,423.7 L174.1,423.2 L174.1,422.8
		L174.1,422.4 L174.1,422.0 L174.1,421.6 L174.1,421.2 L174.1,420.8 L174.1,420.3 L174.1,419.9 L174.1,419.5
		L174.1,419.1 L174.1,418.7 L174.1,418.3 L174.1,417.9 L174.1,417.4 L174.1,417.0 L174.1,416.6 L174.1,416.2
		L174.1,415.8 L174.1,415.4 L174.1,415.0 L174.1,414.5 L174.1,414.1 L174.1,413.7 L174.1,413.3 L174.1,412.9
		L174.1,412.5 L174.1,412.1 L174.1,411.6 L174.1,411.2 L174.1,410.8 L174.1,410.4 L174.1,410.0 L174.1,409.6
		L174.1,409.2 L174.1,408.7 L174.1,408.3 L174.1,407.9 L174.1,407.5  '/></g>
	</g>
	<g id="gnuplot_plot_4" ><title>score median=7300</title>
<g fill="none" color="black" stroke="currentColor" stroke-width="1.00" stroke-linecap="butt" stroke-linejoin="miter">
	<g transform="translate(550.2,485.9)" stroke="none" fill="black" font-family="Arial" font-size="12.00"  text-anchor="end">
		<text><tspan font-family="Arial" >score median=7300</tspan></text>
	</g>
</g>
<g fill="none" color="black" stroke="currentColor" stroke-width="1.00" stroke-linecap="butt" stroke-linejoin="miter">
	<path stroke='rgb(230, 159,   0)'  d='M558.5,482.0 L600.7,482.0 M388.7,428.0 L388.7,427.8 L388.7,427.4 L388.7,427.0 L388.7,426.6 L388.7,426.1
		L388.7,425.7 L388.7,425.3 L388.7,424.9 L388.7,424.5 L388.7,424.1 L388.7,423.7 L388.7,423.2 L388.7,422.8
		L388.7,422.4 L388.7,422.0 L388.7,421.6 L388.7,421.2 L388.7,420.8 L388.7,420.3 L388.7,419.9 L388.7,419.5
		L388.7,419.1 L388.7,418.7 L388.7,418.3 L388.7,417.9 L388.7,417.4 L388.7,417.0 L388.7,416.6 L388.7,416.2
		L388.7,415.8 L388.7,415.4 L388.7,415.0 L388.7,414.5 L388.7,414.1 L388.7,413.7 L388.7,413.3 L388.7,412.9
		L388.7,412.5 L388.7,412.1 L388.7,411.6 L388.7,411.2 L388.7,410.8 L388.7,410.4 L388.7,410.0 L388.7,409.6
		L388.7,409.2 L388.7,408.7 L388.7,408.3 L388.7,407.9 L388.7,407.5  '/></g>
	</g>
<g fill="none" color="#FFFFFF" stroke="rgb(230, 159,   0)" stroke-width="2.00" stroke-linecap="butt" stroke-linejoin="miter">
</g>
<g fill="none" color="black" stroke="currentColor" stroke-width="2.00" stroke-linecap="butt" stroke-linejoin="miter">
</g>
<g fill="none" color="black" stroke="black" stroke-width="1.00" stroke-linecap="butt" stroke-linejoin="miter">
</g>
<g fill="none" color="black" stroke="currentColor" stroke-width="1.00" stroke-linecap="butt" stroke-linejoin="miter">
	<path stroke='black'  d='M53.9,18.1 L53.9,428.0 L615.0,428.0 L615.0,18.1 L53.9,18.1 Z  '/></g>
<g fill="none" color="black" stroke="currentColor" stroke-width="1.00" stroke-linecap="butt" stroke-linejoin="miter">
</g>
</g>
</svg>
